img/logo.svg

<svg width="170" height="24" viewBox="0 0 170 24" fill="none" xmlns="http://www.w3.org/2000/svg">
<g clip-path="url(#clip0_1628_2867)">
<path d="M18.4397 21.1635L15.2828 15.6776C15.2096 15.5504 15.2817 15.3856 15.4255 15.3526L19.2503 14.4995C19.4398 14.4585 19.4831 14.2092 19.3232 14.1021L7.94672 6.56924C7.79727 6.4701 7.59581 6.58469 7.60894 6.7649L8.42246 20.4183C8.43476 20.611 8.67179 20.6978 8.80198 20.5537L11.4508 17.6569C11.551 17.5483 11.727 17.5675 11.8026 17.6954L14.9548 23.1801C15.0158 23.2861 15.1491 23.322 15.2545 23.2608L18.3602 21.4618C18.4651 21.4032 18.5013 21.2671 18.4397 21.1634L18.4397 21.1635Z" fill="white"/>
<path d="M11.3848 6.25893C11.5298 6.29798 11.6897 6.28213 11.8289 6.19934L14.6451 4.56817C14.9255 4.40577 15.0216 4.04528 14.8596 3.76376C14.6976 3.48225 14.3384 3.38552 14.058 3.54792L11.2418 5.17926C10.9614 5.34166 10.8653 5.70215 11.0273 5.98367C11.1092 6.12601 11.2396 6.21984 11.3848 6.25894L11.3848 6.25893Z" fill="white"/>
<path d="M5.27598 6.68913C5.35936 6.37642 5.17293 6.05246 4.86132 5.96855L1.71897 5.12241C1.40736 5.03851 1.08473 5.2254 1.00135 5.5381C0.917971 5.8508 1.1044 6.17477 1.416 6.25868L4.55836 7.10481C4.86997 7.18872 5.1926 7.00183 5.27598 6.68913Z" fill="white"/>
<path d="M9.13588 4.49973C9.4475 4.58363 9.77013 4.39674 9.85351 4.08404L10.6943 0.930635C10.7777 0.617929 10.5913 0.293967 10.2797 0.210061C9.96806 0.126155 9.64542 0.313046 9.56204 0.625748L8.72123 3.77915C8.63785 4.09186 8.82428 4.41582 9.13588 4.49973Z" fill="white"/>
<path d="M4.76793 8.86262L1.95166 10.494C1.6713 10.6564 1.57518 11.0169 1.73718 11.2984C1.81726 11.4375 1.94713 11.5341 2.09215 11.5731C2.23717 11.6122 2.39701 11.5963 2.53628 11.5135L5.35255 9.8822C5.63291 9.7198 5.72903 9.3593 5.56704 9.07779C5.40753 8.79695 5.04831 8.70022 4.76795 8.86262L4.76793 8.86262Z" fill="white"/>
<path d="M5.34042 1.1594C5.17842 0.877887 4.81919 0.781157 4.53883 0.943558C4.25846 1.10596 4.16234 1.46645 4.32434 1.74797L5.95163 4.57582C6.03172 4.715 6.16159 4.81154 6.30661 4.85059C6.45163 4.88964 6.61147 4.87378 6.75074 4.791C7.0311 4.6286 7.12722 4.2681 6.96522 3.98659L5.34042 1.1594Z" fill="white"/>
<path d="M27.7137 12.1544C27.679 9.67766 28.5729 7.55851 30.3953 5.79691C32.2176 4.01787 34.3785 3.15451 36.8778 3.20683C38.5092 3.20683 39.9845 3.59055 41.3036 4.35798C42.64 5.10797 43.69 6.15446 44.4537 7.49747L41.7982 9.38116C40.5659 7.44514 38.9258 6.47713 36.8778 6.47713C35.281 6.47713 33.9533 7.01782 32.8945 8.0992C31.8532 9.18058 31.3325 10.541 31.3325 12.1805C31.3325 13.82 31.8532 15.1718 32.8945 16.2357C33.9533 17.2996 35.281 17.8316 36.8778 17.8316C38.9258 17.8316 40.5659 16.8636 41.7982 14.9276L44.4537 16.8113C43.7074 18.1543 42.666 19.2095 41.3296 19.9769C39.9932 20.7269 38.5005 21.1019 36.8517 21.1019C34.3351 21.1542 32.1656 20.2996 30.3432 18.538C28.5382 16.759 27.6617 14.6311 27.7137 12.1544Z" fill="white"/>
<path d="M47.4405 20.788V3.52078H50.9551V17.5961H58.479V20.788H47.4405Z" fill="white"/>
<path d="M61.0932 20.788V3.52078H64.6078V20.788H61.0932Z" fill="white"/>
<path d="M67.5531 12.1544C67.5184 9.67766 68.4122 7.55851 70.2346 5.79691C72.057 4.01787 74.2178 3.15451 76.7171 3.20683C78.3486 3.20683 79.8238 3.59055 81.1429 4.35798C82.4793 5.10797 83.5294 6.15446 84.293 7.49747L81.6376 9.38116C80.4053 7.44514 78.7651 6.47713 76.7171 6.47713C75.1203 6.47713 73.7926 7.01782 72.7339 8.0992C71.6925 9.18058 71.1718 10.541 71.1718 12.1805C71.1718 13.82 71.6925 15.1718 72.7339 16.2357C73.7926 17.2996 75.1203 17.8316 76.7171 17.8316C78.7651 17.8316 80.4053 16.8636 81.6376 14.9276L84.293 16.8113C83.5467 18.1543 82.5054 19.2095 81.1689 19.9769C79.8325 20.7269 78.3399 21.1019 76.6911 21.1019C74.1744 21.1542 72.0049 20.2996 70.1825 18.538C68.3775 16.759 67.501 14.6311 67.5531 12.1544Z" fill="white"/>
<path d="M102.406 20.788H98.1621L90.7945 11.7881V20.788H87.2798V3.52078H90.7945V11.5265L97.3551 3.52078H101.547L94.9599 11.6573L102.406 20.788Z" fill="white"/>
<path d="M104.721 20.9928V3.72559H108.235V10.3447H115.837V3.72559H119.352V20.9928H115.837V13.5365H108.235V20.9928H104.721Z" fill="#257BF4"/>
<path d="M123.28 20.9928V3.72559H134.839V6.9174H126.795V10.4232H132.705V13.4318H126.795V17.801H135.152V20.9928H123.28Z" fill="#257BF4"/>
<path d="M152.705 20.9928H148.748L144.296 14.8969H141.719V20.9928H138.204V3.72559H144.661C146.466 3.72559 147.949 4.24011 149.112 5.26917C150.275 6.29822 150.857 7.64122 150.857 9.29817C150.857 10.3796 150.588 11.3563 150.05 12.2284C149.529 13.083 148.791 13.7458 147.837 14.2167L152.705 20.9928ZM141.719 6.83891V11.7836H144.661C145.476 11.7836 146.11 11.5569 146.561 11.1034C147.03 10.6499 147.264 10.0482 147.264 9.29817C147.264 8.56563 147.021 7.97261 146.535 7.51913C146.066 7.06565 145.442 6.83891 144.661 6.83891H141.719Z" fill="#257BF4"/>
<path d="M154.857 20.9928V3.72559H166.416V6.9174H158.371V10.4232H164.281V13.4318H158.371V17.801H166.728V20.9928H154.857Z" fill="#257BF4"/>
</g>
<defs>
<clipPath id="clip0_1628_2867">
<rect width="168" height="24" fill="white" transform="translate(0.75)"/>
</clipPath>
</defs>
</svg>

<svg xmlns="http://www.w3.org/2000/svg" width="170" height="24" fill="none"><g clip-path="url(#a)"><path fill="#fff" d="m18.44 21.163-3.157-5.485a.222.222 0 0 1 .143-.325l3.824-.854c.19-.04.233-.29.073-.397L7.947 6.57a.218.218 0 0 0-.338.196l.813 13.653c.013.193.25.28.38.136l2.649-2.897a.22.22 0 0 1 .352.038l3.152 5.485a.218.218 0 0 0 .3.08l3.105-1.798a.217.217 0 0 0 .08-.299ZM11.385 6.259a.573.573 0 0 0 .444-.06l2.816-1.63a.59.59 0 0 0 .215-.805.586.586 0 0 0-.802-.216l-2.816 1.631a.59.59 0 0 0 .143 1.08ZM5.276 6.69a.59.59 0 0 0-.415-.721L1.72 5.122a.587.587 0 0 0-.303 1.137l3.142.846a.587.587 0 0 0 .718-.416ZM9.136 4.5a.587.587 0 0 0 .718-.416l.84-3.153A.587.587 0 1 0 9.562.626l-.84 3.153a.59.59 0 0 0 .414.72ZM4.768 8.863l-2.816 1.631a.59.59 0 0 0 .14 1.08c.145.038.305.022.444-.06l2.817-1.632a.59.59 0 0 0 .214-.804.583.583 0 0 0-.8-.215ZM5.34 1.16a.586.586 0 1 0-1.016.588l1.628 2.828c.08.139.21.236.355.275a.59.59 0 0 0 .659-.864L5.34 1.159ZM27.714 12.154c-.035-2.476.859-4.595 2.681-6.357 1.823-1.78 3.984-2.642 6.483-2.59 1.631 0 3.106.384 4.426 1.151a8.153 8.153 0 0 1 3.15 3.14L41.798 9.38c-1.232-1.936-2.872-2.904-4.92-2.904-1.597 0-2.925.54-3.983 1.622-1.042 1.082-1.563 2.442-1.563 4.082 0 1.639.521 2.99 1.563 4.055 1.058 1.064 2.386 1.596 3.983 1.596 2.048 0 3.688-.968 4.92-2.904l2.656 1.883a8.153 8.153 0 0 1-3.124 3.166c-1.337.75-2.83 1.125-4.478 1.125-2.517.052-4.686-.802-6.509-2.564-1.805-1.779-2.681-3.907-2.63-6.384ZM47.44 20.788V3.521h3.515v14.075h7.524v3.192H47.441ZM61.093 20.788V3.521h3.515v17.267h-3.515ZM67.553 12.154c-.035-2.476.86-4.595 2.682-6.357 1.822-1.78 3.983-2.642 6.482-2.59 1.632 0 3.107.384 4.426 1.151a8.152 8.152 0 0 1 3.15 3.14L81.638 9.38c-1.233-1.936-2.873-2.904-4.92-2.904-1.598 0-2.925.54-3.984 1.622-1.041 1.082-1.562 2.442-1.562 4.082 0 1.639.52 2.99 1.562 4.055 1.059 1.064 2.386 1.596 3.983 1.596 2.048 0 3.688-.968 4.92-2.904l2.656 1.883a8.153 8.153 0 0 1-3.124 3.166c-1.337.75-2.83 1.125-4.478 1.125-2.517.052-4.686-.802-6.508-2.564-1.806-1.779-2.682-3.907-2.63-6.384ZM102.406 20.788h-4.244l-7.368-9v9H87.28V3.521h3.514v8.006l6.561-8.006h4.192l-6.587 8.136 7.446 9.131Z"/><path fill="#257BF4" d="M104.721 20.993V3.726h3.514v6.619h7.602v-6.62h3.515v17.268h-3.515v-7.456h-7.602v7.456h-3.514ZM123.28 20.993V3.726h11.559v3.191h-8.044v3.506h5.91v3.009h-5.91V17.8h8.357v3.192H123.28ZM152.705 20.993h-3.957l-4.452-6.096h-2.577v6.096h-3.515V3.726h6.457c1.805 0 3.288.514 4.451 1.543 1.163 1.03 1.745 2.372 1.745 4.03 0 1.08-.269 2.057-.807 2.93-.521.854-1.259 1.517-2.213 1.988l4.868 6.776ZM141.719 6.839v4.945h2.942c.815 0 1.449-.227 1.9-.68.469-.454.703-1.056.703-1.806 0-.732-.243-1.325-.729-1.779-.469-.453-1.093-.68-1.874-.68h-2.942ZM154.857 20.993V3.726h11.559v3.191h-8.045v3.506h5.91v3.009h-5.91V17.8h8.357v3.192h-11.871Z"/></g><defs><clipPath id="a"><path fill="#fff" d="M.75 0h168v24H.75z"/></clipPath></defs></svg>
